X: 10400
T: Highland Schottische
B: Henry Ford's "Good Morning"
Z: 2011 John Chambers <jc:trillian.mit.edu>
N: Composed of two ighland steps, two five-step schottisches, and four waltz-galop steps, turning.
R: shottish
M: C
L: 1/8
K: F
|: "F"[F2C2A,2] [F2C2A,2] ([AC]<[cA]) [c2A2F2] |\
"C7"[BE2C2]>G "F"[AF2C2]>F "C"[GE2]>E D>C |\
"F"[F2C2A,2] [F2C2A,2] ([AC]<[cA]) [c2A2F2] |\
"Bb"[dB2F2]>f "C7"[eB2G2]>g"F"[f2A2] z2 :|
"F"[fA]>[gB][ac]>[fA] "C7"[gB]>e "F"[dA]>c |\
"Bb"[dB]>e"(F)"[fA]>d "F"[cA]>A[GE]>F |\
"F"[fA]>[gB][ac]>[fA] "C7"[gB]>e"F"[dA]c |\
"F"[dB]>f"C7"[eB]>g "F"[f2A2] c2 |
"F"[fA]>[gB][ac]>[fA] "C7"[gB]>e"F"[dA]c |\
"Bb"[dB]>e"(F)"[fA]>d "F"[cA]>A[GE]>F |\
"F"[F2C2A,2] [F2C2A,2] ([AC]<[cA]) [c2A2F2] |\
"Bb"[dB2F2]>f "C7"[eB2G2]>g "F"[f2A2] z2 |]


%%sep 5 1 500

